X: 68
T: Ratuj mię, Panie, bo złych przygód nawałności
C: Mikołaj Gomółka
%%abc-version 2.0
%%abcx-abcm2ps-target-version 5.9.1 (29 Sep 2008)
%%abc-creator hum2abc beta
%%abcx-conversion-date 2021/10/04 07:59:09
%%abc-edited-by Marta Lawrence
%%abcx-initial-encoding-date 2020-02-13
%%humdrum-veritas 313924081
%%humdrum-veritas-data 884486156
%%linebreak <none>
%%barnumbers 0
L: 1/4
M: C|
N: Derived from pl-wn--sd-xvi-qu-273--069_gomolka-mikolaj--ratuj-mie-panie-bo-zlych-przygod-nawalnosci.krn
%%staves [1 2 3 4]
V: 1
V: 2
V: 3 clef=alto
V: 4 clef=bass
K: C
[V:1] A4A2A2 [|] 
[V:2] F4E2E2 [|] 
[V:3] D4C2C2 [|] 
[V:4] D,4A,3G, [|] 
[V:1] c4B2A2 [|] 
[V:2] A2G2F4 [|] 
[V:3] F2E2D3C [|] 
[V:4] F,2C,2D,4 [|] 
[V:1] A2^G2A4 [|] 
[V:2] E4E2DC [|] 
[V:3] B,A,B,2A,4 [|] 
[V:4] E,2>D,2^C,2D,2 [|] 
[V:1] =G2A2B4 [|] 
[V:2] B,2A,2E3D [|] 
[V:3] z2C2G,2G,2 [|] 
[V:4] E,2F,2E,4 [|] 
[V:1] A2A2A2A2 [|] 
[V:2] ^C2F2E2D2 [|] 
[V:3] A,2A,2A,2A,2 [|] 
[V:4] A,,2D,2^C,2D,2 [|] 
[V:1] A4A2G2 [|] 
[V:2] =C2C2>D2E2 [|] 
[V:3] A,2A,4C2 [|] 
[V:4] A,,2F,4E,2 [|] 
[V:1] A2c2G4 [|] 
[V:2] A,2E2C2B,2 [|] 
[V:3] F,2E,2>F,2G,2 [|] 
[V:4] D,2=C,2>D,2E,2 [|] 
[V:1] E32 |]  
[V:2] B,32 |]  
[V:3] ^G,32 |]  
[V:4] E,,32 |]  


